src/assets/icon/icon-social-facebook.svg

<svg height="21" viewBox="0 0 21 21" width="21" xmlns="http://www.w3.org/2000/svg"><path d="m19.8409167 0h-18.68183337c-.64020833 0-1.15908333.518875-1.15908333 1.15908333v18.68212497c0 .6399167.518875 1.1587917 1.15908333 1.1587917h10.05754167v-8.13225h-2.73670833v-3.16925h2.73670833v-2.33741667c0-2.7125 1.6566667-4.18920833 4.0763333-4.18920833 1.1590834 0 2.155125.08604167 2.445625.12483333v2.83470834l-1.67825.000875c-1.316 0-1.570625.62533333-1.570625 1.54291666v2.02358334h3.1383334l-.408625 3.16925003h-2.7297084v8.1319583h5.3515c.6399167 0 1.1587917-.518875 1.1587917-1.1590833v-18.68183337c0-.64020833-.518875-1.15908333-1.1590833-1.15908333z" fill="#fff" fill-rule="evenodd" transform=""/></svg>

<?xml version="1.0" encoding="UTF-8"?>
<svg width="21px" height="21px" viewBox="0 0 21 21" version="1.1" xmlns="http://www.w3.org/2000/svg" xmlns:xlink="http://www.w3.org/1999/xlink">
    <!-- Generator: Sketch 50.2 (55047) - http://www.bohemiancoding.com/sketch -->
    <title>fi-social-facebook copy</title>
    <desc>Created with Sketch.</desc>
    <defs></defs>
    <g id="AAC" stroke="none" stroke-width="1" fill="none" fill-rule="evenodd">
        <g id="AAC-Mobile" transform="translate(-77.000000, -6937.000000)" fill="#FFFFFF">
            <g id="footer" transform="translate(-1.000000, 6738.000000)">
                <g id="Group-16" transform="translate(12.000000, 103.000000)">
                    <g id="social-icons" transform="translate(0.000000, 96.000000)">
                        <g id="fi-social-facebook-copy" transform="translate(66.000000, 0.000000)">
                            <g id="Layer_1">
                                <g id="White_1_">
                                    <path d="M19.8409167,0 L1.15908333,0 C0.518875,0 0,0.518875 0,1.15908333 L0,19.8412083 C0,20.481125 0.518875,21 1.15908333,21 L11.216625,21 L11.216625,12.86775 L8.47991667,12.86775 L8.47991667,9.6985 L11.216625,9.6985 L11.216625,7.36108333 C11.216625,4.64858333 12.8732917,3.171875 15.2929583,3.171875 C16.4520417,3.171875 17.4480833,3.25791667 17.7385833,3.29670833 L17.7385833,6.13141667 L16.0603333,6.13229167 C14.7443333,6.13229167 14.4897083,6.757625 14.4897083,7.67520833 L14.4897083,9.69879167 L17.6280417,9.69879167 L17.2194167,12.8680417 L14.4897083,12.8680417 L14.4897083,21 L19.8412083,21 C20.481125,21 21,20.481125 21,19.8409167 L21,1.15908333 C21,0.518875 20.481125,0 19.8409167,0 L19.8409167,0 Z" id="Shape"></path>
                                </g>
                            </g>
                        </g>
                    </g>
                </g>
            </g>
        </g>
    </g>
</svg>
